X:67
T:Bury Me Beneath the Willow Tree
C:John Reischman solo
A:No Hurry
N:Transcribed by Jeff Hoelter
R:bluegrass
L:1/8
Q:1/4=210
M:4/4
K:A
EF AB cd | "A"de ee ze f2 | e2 ee {B}c2 (3BcB | "D"A2 AA AF BF | A2 EF AF AF | 
|"A"E2 [AE]E [AE]F AB | [eB][ec] [ec][ec] cd c2 | "E"B2 BF GB GF | "A"E2 EF AB cd | 
|"A"{d}(3eee (3eee e2 ef | e2 ee B2 ee | "D"(3BcB A3A BF | A2 AA EF A2 | "A"Bc zc B2 c2 | 
|"E"dc BA GA BG | "A"A2 EF zE C2 | A,4 [e2e2] ef | "A"e2 ee B2 Bc | cc3 AB A2 | 
|"D"AB BB A2 F2 | EF z2 AB AF | "A"E2 EE EF AB | c2 Bc d2 c2 | "E"Bc BA GA GF | 
|"A"EF GA BA GB | "A"A2 E3E F2 | zF =G3G F2 | "D"D4 {E}F2 AF | A2 AA EF A2 | "A"Bc cc B2 c2 | 
|"E"dc BA GA BG | "A"AE F2 E2 B,2 | B,C z4 F2 | "A"[cA]A3 [B=G]G3 | [dB]B2A cA z2 | 
|"D"AF z2 =G2 F2 | EF z2 FE D2 | "A"E2 EE B,C EE | EF AB cB A2 | "E"B2 FG BG F2 | 
|"A"E2 EF AF AF | "A"AB AF EF AB | c2 fe =gf ec | "D"d2 df af bf | a2 aa ef a2 | 
|{b}"A"c'c' c'c' c'2 c'2 | "E"d'c' ba ga bg | "A"a2 ef e2 B2 | Bc7/1 || 

